X:1
T:Dies Est Lætitiæ, 76.76.776.776.
T:Dies Est Lætitiæ, 76.76.776.776.
T:Hermann Rudolph Schroeder, 1887
T:Public Domain Courtesy of the Cyber Hymnal™
C:Hermann Rudolph Schroeder, 1887
Z:Public Domain
Z:Courtesy of the Cyber Hymnal™
%%score ( 1 2 ) ( 3 4 )
L:1/8
Q:1/4=110
M:4/4
K:G
V:1 treble 
V:2 treble 
V:3 bass 
V:4 bass 
V:1
 [DG]2 G2 [FA]2 B2 | [Ac]2 [FA]2 G4 | [FA]2 [FA]2 E2 [DF]2 | [DG]4 [EG]4 | %4
 [DG]2 [DG]2 [DA]2 [DB]2 | [Cc]2 [DA]2 G4 | [EA]2 A2 E2 [DF]2 | [DG]4 [DG]4 | %8
 [Gd]2 [Gd]2 [Ge]2 d2 | [GB]2 [Gc]2 [Fd]4 | [Gd]2 [Gd]2 [Ge]2 (dc) | [DB]2 [CA]2 [B,G]4 | %12
 [^CE]2 [DF]2 [EG]2 [CE]2 | D4 D4 | [DG]2 G2 [FA]2 B2 | [Ac]2 [FA]2 G4 | [FA]2 [FA]2 E2 [DF]2 | %17
 (GF) [CE]2 [B,D]4 | [CE]2 D2 [CE]2 [CA]2 | G4 [B,G]4 |] %20
V:2
 x2 (DE) x (FG) x | x4 G4 | x4 E2 x2 | x8 | x8 | x4 D2 E2 | x2 (CD) E2 x2 | x8 | x6 (GF) | x8 | %10
 x6 F2 | x8 | x8 | D4 D4 | x2 (DE) x (FG) x | x4 G4 | x4 E2 x2 | D2 x6 | x2 D2 x4 | (C2 B,A,) x4 |] %20
V:3
 [G,B,]2 [G,B,]2 [D,D]2 [D,D]2 | [C,E]2 (DC) [G,,B,]4 | [D,A,]2 [D,A,]2 [C,A,]2 [C,A,]2 | %3
 [B,,G,]4 [C,G,]4 | [G,,B,]2 [G,B,]2 [F,A,]2 G,2 | [E,G,]2 [F,A,]2 B,4 | %6
 [C,A,]2 A,2 [C,A,]2 [D,C]2 | (C2 B,A,) [G,,B,]4 | [G,B,]2 [G,B,]2 C2 D2 | [G,D]2 [E,G,]2 [D,A,]4 | %10
 [G,B,]2 [G,B,]2 [C,C]2 [D,A,]2 | G,2 [D,F,]2 G,4 | A,2 [F,A,]2 [E,B,]2 A,2 | [D,F,]4 [F,A,]4 | %14
 [G,B,]2 [G,B,]2 [D,D]2 [D,D]2 | [C,E]2 (DC) [G,,B,]4 | [D,A,]2 [D,A,]2 [C,A,]2 [C,A,]2 | %17
 [B,,G,]2 [C,G,]2 [G,,G,]4 | [C,G,]2 [B,,G,]2 [C,G,]2 [D,F,]2 | G,4 G,4 |] %20
V:4
 x8 | x2 D,2 x4 | x8 | x8 | x6 G,2 | x4 G,2 E,2 | x2 (A,,B,,) x4 | G,,4 x4 | x4 C2 (B,A,) | x8 | %10
 x8 | G,2 G,4 x2 | (A,G,) x3 A,2 x | x8 | x8 | x2 D,2 x4 | x8 | x8 | x8 | G,4 G,4 |] %20

